src/assets/images/Logo.svg

<svg fill="none" height="99" viewBox="0 0 346 99" width="346" xmlns="http://www.w3.org/2000/svg"><path d="m0 0h345.098v98.767h-345.098z" fill="#1b1b1d"/><g fill="#f9f9fb"><path d="m289.171 32.0488h23.927v1.8067h-22.12v13.7701h19.239v1.8067h-19.239v14.7955h22.12v1.8067h-23.927z"/><path d="m266.118 33.1719c1.953.9115 3.483 2.2625 4.59 4.0529 1.139 1.7904 1.709 3.7762 1.709 5.9573 0 2.5391-.781 4.8179-2.344 6.8362-1.53 1.9857-3.499 3.3041-5.908 3.9552l8.643 12.061h-2.149l-8.35-11.7192-1.562.0488h-12.257v11.6704h-1.807v-33.9857h12.94c1.433 0 2.654.0977 3.663.293 1.041.1628 1.985.4395 2.832.8301zm-4.883 19.3855c1.693 0 3.255-.4232 4.688-1.2696 1.432-.8463 2.571-1.9857 3.418-3.418.846-1.4324 1.269-2.995 1.269-4.6877 0-1.8881-.504-3.5972-1.514-5.1272-.976-1.53-2.343-2.6694-4.101-3.4181-1.27-.5208-3.06-.7813-5.372-.7813h-11.133v18.7019z"/><path d="m202.878 32.0488h1.806v20.9969c0 2.1486.537 4.1343 1.612 5.9573 1.074 1.823 2.523 3.2716 4.346 4.3459 1.823 1.0742 3.808 1.6114 5.957 1.6114 2.148 0 4.134-.5372 5.957-1.6114 1.823-1.0743 3.272-2.5229 4.346-4.3459s1.611-3.8087 1.611-5.9573v-20.9969h1.807v20.9969c0 2.4741-.618 4.7691-1.856 6.8851-1.237 2.0834-2.913 3.7436-5.029 4.9806-2.083 1.237-4.362 1.8556-6.836 1.8556s-4.769-.6186-6.885-1.8556c-2.084-1.237-3.744-2.8972-4.981-4.9806-1.237-2.116-1.855-4.411-1.855-6.8851z"/><path d="m188.174 32.0488v1.8067h-12.842v32.179h-1.758v-32.179h-12.842v-1.8067z"/><path d="m119.026 66.0345v-33.9857h1.904l23.732 23.0478v-23.0478h1.806v33.9857h-1.806v-8.3988l-23.83-23.243v31.6418z"/><path d="m78.4426 32.0488h23.9264v1.8067h-22.1197v13.7701h19.2391v1.8067h-19.2391v14.7955h22.1197v1.8067h-23.9264z"/><path d="m32 32h32.0325l-16.0163 34.7181zm16.0162 30.4211 13.233-28.6144h-26.4171z"/></g></svg>

<svg width="346" height="99" viewBox="0 0 346 99" fill="none" xmlns="http://www.w3.org/2000/svg">
<rect width="345.098" height="98.767" fill="#1B1B1D"/>
<path d="M289.171 32.0488H313.098V33.8555H290.978V47.6256H310.217V49.4323H290.978V64.2278H313.098V66.0345H289.171V32.0488Z" fill="#F9F9FB"/>
<path d="M266.118 33.1719C268.071 34.0834 269.601 35.4344 270.708 37.2248C271.847 39.0152 272.417 41.001 272.417 43.1821C272.417 45.7212 271.636 48 270.073 50.0183C268.543 52.004 266.574 53.3224 264.165 53.9735L272.808 66.0345H270.659L262.309 54.3153L260.747 54.3641H248.49V66.0345H246.683V32.0488H259.623C261.056 32.0488 262.277 32.1465 263.286 32.3418C264.327 32.5046 265.271 32.7813 266.118 33.1719ZM261.235 52.5574C262.928 52.5574 264.49 52.1342 265.923 51.2878C267.355 50.4415 268.494 49.3021 269.341 47.8698C270.187 46.4374 270.61 44.8748 270.61 43.1821C270.61 41.294 270.106 39.5849 269.096 38.0549C268.12 36.5249 266.753 35.3855 264.995 34.6368C263.725 34.116 261.935 33.8555 259.623 33.8555H248.49V52.5574H261.235Z" fill="#F9F9FB"/>
<path d="M202.878 32.0488H204.684V53.0457C204.684 55.1943 205.221 57.18 206.296 59.003C207.37 60.826 208.819 62.2746 210.642 63.3489C212.465 64.4231 214.45 64.9603 216.599 64.9603C218.747 64.9603 220.733 64.4231 222.556 63.3489C224.379 62.2746 225.828 60.826 226.902 59.003C227.976 57.18 228.513 55.1943 228.513 53.0457V32.0488H230.32V53.0457C230.32 55.5198 229.702 57.8148 228.464 59.9308C227.227 62.0142 225.551 63.6744 223.435 64.9114C221.352 66.1484 219.073 66.767 216.599 66.767C214.125 66.767 211.83 66.1484 209.714 64.9114C207.63 63.6744 205.97 62.0142 204.733 59.9308C203.496 57.8148 202.878 55.5198 202.878 53.0457V32.0488Z" fill="#F9F9FB"/>
<path d="M188.174 32.0488V33.8555H175.332V66.0345H173.574V33.8555H160.732V32.0488H188.174Z" fill="#F9F9FB"/>
<path d="M119.026 66.0345V32.0488H120.93L144.662 55.0966V32.0488H146.468V66.0345H144.662V57.6357L120.832 34.3927V66.0345H119.026Z" fill="#F9F9FB"/>
<path d="M78.4426 32.0488H102.369V33.8555H80.2493V47.6256H99.4884V49.4323H80.2493V64.2278H102.369V66.0345H78.4426V32.0488Z" fill="#F9F9FB"/>
<path d="M32 32H64.0325L48.0162 66.7181L32 32ZM48.0162 62.4211L61.2492 33.8067H34.8321L48.0162 62.4211Z" fill="#F9F9FB"/>
</svg>
